X: 226
T:Zemer Shirim
O:Israeli
I:taught by Moshiko
L:1/8
M:4/4
Q:1/4=120
K:Dm
"Dm"A2 de f2 ed    | "F"c2 Bc "Dm"A2 BA | "Gm"GGGG G2 FG| "Dm"A4 A4   |\
"Dm"A2 de f2 ed    | "C"g2 fe "Dm"d2 z d| d2 d2 c2 ce   | d8          |
"Dm"A2 de f2 ed    | "F"c2 Bc "Dm"A2 BA | "Gm"G6 FG     | "Dm"A8      |\
A2 de f2 ed        | "C"g2 fe "Dm"a4    | "Gm"ba g4 eg  | "Dm"a4 z2 ba|
"Gm"g2 dg "Dm"f2 ed| "F"c2 Bc "Dm"A4    | d2 ef "C"g2 fe| "Dm"f4 z2 ba|\
"Gm"g2 dg "Dm"f2 ed| "F"c2 Bc "Dm"A4    | A3 A "Am"e2 dc| "Dm"d4 d4   |



This is a reconstruction of the abc file used to generate volume 1
of the music played by the Ottawa Slow (Celtic) Jam and the Carp
Celtic Jam (see http://www.siegelproductions.ca/slowjam/ and
http://ww3.sympatico.ca/hhtuner/carp/ ). The purpose for creating
this reconstruction was in order to produce a collection of midi
files matching the music in the volume. Many of the musicians find
it easier to learn the music by ear rather than sight reading.

The pdf file for volume 1 is available on a few web sites including
the Carp Celtic Jam web page; however, I was unable to find the
abc file used to generate this volume. To save some time, I collected
the abc representations of the in volume 1. The tunes were located
using John Chamber's tune finder.
(http://trillian.mit.edu/~jc/music/abc/ ) 
When several versions of the same tune were found, I tended to pick the
one containing guitar chords. In a few cases I could not find
an abc transcription and it was necessary to enter the music note
by note from the pdf file.

Due to the many variations in how the music is played, the abc
representation did not match the music in the book exactly. I made
several passes through the abc collection fixing all the discrepancies
so that there would be a perfect match with only minor exceptions. Furthermore,
I ensured that the abc music would convert with the same format and
page numbering as in the book. The new edition of the book now has
the guitar chords which were missing in many of the tunes of the original
volume. Furthermore missing beats were added or subtracted during transitions
into repeats or into different parts. 

I intentionally removed identifications or attributions to the
original transcriber or web site, since the tunes were modified
to conform with the original pdf file and I did not wish the
originator to be blamed for my changes (in event that this abc
file is posted on the internet).

Though the tempo is not normally specified for most of the tunes,
it was necessary to preset the tempo to 1/4=60 on a few of the
tunes (eg. Whiskey Before Breakfast) so that they would be played
at slow speed for beginners. You should remove these tempo markings
(Q:1/4=60), from this file when this no longer necessary.


The creation of this abc file was a big job; however, it provided
me an opportunity to become more familiar with the music.

Seymour Shlien (seymour.shlien@crc.ca)


 





%%pageheight  11.00in
%%pagewidth    8.50in
%%leftmargin   0.35in
%%rightmargin  0.35in
%%topmargin    0.35in
%%botmargin    0.25in
%%staffwidth   7.80in

%%topspace   0in
%%titlespace 0in

%withxrefs yes  % print the X: number in the title

%%gchordfont Helvetica 14
%%titlefont Times-Roman-Bold 16
%%titlecaps

%%headerfont Helvetica-Bold 12
%%header  $P
%%footer "Ottawa Celtic Slow Jam - volume 1 - 2013/07 edition"

%make the notes a bit smaller
%%scale 0.78

%%vskip 3in

%%textfont Helvetica 20
%%textspace 20

%%center Volume 1
%%center for the
%%center Carp Celtic Jam
%%center Version 1.4
%%vskip 3in
%%textfont Helvetica 12
%%center updated July 08, 2013
%%vskip 3in
%%center Disclaimer
%%center This package of tunes was created for informal, jamming purposes only and is not to be sold.
%%center Some of these tunes are copyrighted, but may not indicate the composer's name.
%%center The fact that a tune appears without a composer name does not imply that it is in the
%%center public domain. Therefore, if you intend to perform, record or publish any of these tunes,
%%center it is your responsibility to acquire the necessary permissions, if applicable.

%%%leftmargin  0in
%%%rightmargin 0in
%%%EPS index1.eps
%%leftmargin  0.35in
%%rightmargin 0.35in

%%stretchstaff yes
%%stretchlast yes
%%printtempo 0  % ignore tempo markings

%%newpage 1


